_includes/social-linkedin.svg

<svg id="Layer_4" data-name="Layer 4" xmlns="http://www.w3.org/2000/svg" viewBox="0 0 292 292"><defs><style>.cls-1{fill:#fff}</style></defs><title>social-twitter</title><path class="cls-1" d="M322.61 54H79.39A24.39 24.39 0 0 0 55 78.39v243.22A24.39 24.39 0 0 0 79.39 346h243.22A24.39 24.39 0 0 0 347 321.61V78.39A24.39 24.39 0 0 0 322.61 54zM140.17 303.42H97.58V163.5h42.58v139.92zm-21.29-158.17a27.38 27.38 0 1 1 27.38-27.37 27.38 27.38 0 0 1-27.38 27.37zm185.54 160h-42.59v-67.78c0-23.76-5.7-37.16-20.2-37.16-20.11 0-28.47 14.45-28.47 37.16v67.77h-42.58V165.32h39.54v19.87c5.7-11.42 20.31-21.69 42.25-21.69 42.06 0 52 22.74 52 64.46v77.28z" transform="translate(-55 -54)"/></svg>

<svg id="Layer_4" data-name="Layer 4" xmlns="http://www.w3.org/2000/svg" viewBox="0 0 292 292"><defs><style>.cls-1{fill:#fff;}</style></defs><title>social-twitter</title><path class="cls-1" d="M322.61,54H79.39A24.39,24.39,0,0,0,55,78.39V321.61A24.39,24.39,0,0,0,79.39,346H322.61A24.39,24.39,0,0,0,347,321.61V78.39A24.39,24.39,0,0,0,322.61,54ZM140.17,303.42H97.58V163.5h42.58V303.42ZM118.88,145.25a27.38,27.38,0,1,1,27.38-27.37A27.38,27.38,0,0,1,118.88,145.25Zm185.54,160H261.83V237.47c0-23.76-5.7-37.16-20.2-37.16-20.11,0-28.47,14.45-28.47,37.16v67.77H170.58V165.32h39.54v19.87c5.7-11.42,20.31-21.69,42.25-21.69,42.06,0,52,22.74,52,64.46v77.28Z" transform="translate(-55 -54)"/></svg>
